svg/design/components_line.svg

<svg xmlns="http://www.w3.org/2000/svg" width="24" height="24" viewBox="0 0 24 24"><g fill="none" fill-rule="evenodd"><path d="M24,0 L24,24 L0,24 L0,0 L24,0 Z M12.5935,23.2578 L12.5819,23.2595 L12.5109,23.295 L12.4919,23.2987 L12.4767,23.295 L12.4057,23.2595 C12.3958,23.2564 12.387,23.259 12.3821,23.2649 L12.378,23.2758 L12.3609,23.7031 L12.3659,23.7235 L12.3769,23.7357 L12.4805,23.8097 L12.4953,23.8136 L12.5071,23.8097 L12.6107,23.7357 L12.6233,23.7197 L12.6267,23.7031 L12.6096,23.2758 C12.6076,23.2657 12.601,23.2593 12.5935,23.2578 Z M12.8584,23.1453 L12.8445,23.1473 L12.6598,23.2397 L12.6499,23.2499 L12.6472,23.2611 L12.6651,23.6906 L12.6699,23.7034 L12.6784,23.7105 L12.8793,23.8032 C12.8914,23.8069 12.9022,23.803 12.9078,23.7952 L12.9118,23.7812 L12.8777,23.1665 C12.8753,23.1546 12.8674,23.147 12.8584,23.1453 Z M12.143,23.1473 C12.1332,23.1424 12.1222,23.1453 12.1156,23.1526 L12.1099,23.1665 L12.0758,23.7812 C12.0751,23.7927 12.0828,23.8019 12.0926,23.8046 L12.1083,23.8032 L12.3092,23.7105 L12.3186,23.7024 L12.3225,23.6906 L12.3404,23.2611 L12.3372,23.2485 L12.3278,23.2397 L12.143,23.1473 Z"/><path fill="#09244B" d="M10.9393,2.45397 C11.5251,1.86818 12.4749,1.86818 13.0607,2.45397 L15.8891,5.2824 C16.4749,5.86818 16.4749,6.81793 15.8891,7.40372 L13.0607,10.2321 C12.4749,10.8179 11.5251,10.8179 10.9393,10.2321 L8.11091,7.40372 C7.52513,6.81793 7.52513,5.86818 8.11091,5.2824 L10.9393,2.45397 Z M12,4.22174 L9.87868,6.34306 L12,8.46438 L14.1213,6.34306 L12,4.22174 Z M16.5962,8.11082 C17.182,7.52504 18.1317,7.52504 18.7175,8.11082 L21.5459,10.9393 C22.1317,11.525 22.1317,12.4748 21.5459,13.0606 L18.7175,15.889 C18.1317,16.4748 17.182,16.4748 16.5962,15.889 L13.7678,13.0606 C13.182,12.4748 13.182,11.525 13.7678,10.9393 L16.5962,8.11082 Z M17.6569,9.87859 L15.5355,11.9999 L17.6569,14.1212 L19.7782,11.9999 L17.6569,9.87859 Z M5.28249,8.11082 C5.86827,7.52504 6.81802,7.52504 7.40381,8.11082 L10.2322,10.9393 C10.818,11.525 10.818,12.4748 10.2322,13.0606 L7.40381,15.889 C6.81802,16.4748 5.86827,16.4748 5.28249,15.889 L2.45406,13.0606 C1.86827,12.4748 1.86827,11.525 2.45406,10.9393 L5.28249,8.11082 Z M6.34315,9.87859 L4.22183,11.9999 L6.34315,14.1212 L8.46447,11.9999 L6.34315,9.87859 Z M10.9393,13.7677 C11.5251,13.1819 12.4749,13.1819 13.0607,13.7677 L15.8891,16.5961 C16.4749,17.1819 16.4749,18.1316 15.8891,18.7174 L13.0607,21.5459 C12.4749,22.1316 11.5251,22.1316 10.9393,21.5459 L8.11091,18.7174 C7.52513,18.1316 7.52513,17.1819 8.11091,16.5961 L10.9393,13.7677 Z M12,15.5354 L9.87868,17.6568 L12,19.7781 L14.1213,17.6568 L12,15.5354 Z"/></g></svg>

<svg xmlns="http://www.w3.org/2000/svg" width="24" height="24"><g fill="none" fill-rule="evenodd"><path d="M24 0v24H0V0zM12.594 23.258l-.012.002-.071.035-.02.004-.014-.004-.071-.036c-.01-.003-.019 0-.024.006l-.004.01-.017.428.005.02.01.013.104.074.015.004.012-.004.104-.074.012-.016.004-.017-.017-.427c-.002-.01-.009-.017-.016-.018m.264-.113-.014.002-.184.093-.01.01-.003.011.018.43.005.012.008.008.201.092c.012.004.023 0 .029-.008l.004-.014-.034-.614c-.003-.012-.01-.02-.02-.022m-.715.002a.023.023 0 0 0-.027.006l-.006.014-.034.614c0 .012.007.02.017.024l.015-.002.201-.093.01-.008.003-.011.018-.43-.003-.012-.01-.01z"/><path fill="#09244B" d="M10.94 2.454a1.5 1.5 0 0 1 2.12 0l2.83 2.828a1.5 1.5 0 0 1 0 2.122l-2.83 2.828a1.5 1.5 0 0 1-2.12 0L8.11 7.404a1.5 1.5 0 0 1 0-2.122zM12 4.222 9.879 6.343 12 8.464l2.121-2.12zm4.596 3.889a1.5 1.5 0 0 1 2.122 0l2.828 2.828a1.5 1.5 0 0 1 0 2.122l-2.828 2.828a1.5 1.5 0 0 1-2.122 0l-2.828-2.828a1.5 1.5 0 0 1 0-2.122zm1.06 1.768-2.12 2.12 2.12 2.122L19.779 12zM5.283 8.11a1.5 1.5 0 0 1 2.122 0l2.828 2.828a1.5 1.5 0 0 1 0 2.122l-2.828 2.828a1.5 1.5 0 0 1-2.122 0l-2.828-2.828a1.5 1.5 0 0 1 0-2.122zm1.061 1.768-2.121 2.12 2.121 2.122L8.464 12zm4.596 3.889a1.5 1.5 0 0 1 2.122 0l2.828 2.828a1.5 1.5 0 0 1 0 2.121l-2.828 2.829a1.5 1.5 0 0 1-2.122 0l-2.828-2.829a1.5 1.5 0 0 1 0-2.12zM12 15.535l-2.121 2.122L12 19.778l2.121-2.121z"/></g></svg>
